public/avatar/body/157.svg

<svg xmlns:xlink="http://www.w3.org/1999/xlink" height="82" width="84.85" xmlns="http://www.w3.org/2000/svg"><g transform="translate(37.4 42.25)"><use height="38" transform="translate(-11.95 -17.45)" width="32.05" xlink:href="#a"/><use height="38.95" transform="translate(-12.45 -17.95)" width="33.05" xlink:href="#b"/><use height="29.35" transform="translate(-15 -1.65)" width="38.9" xlink:href="#c"/></g><defs><path d="M27.35 7.4q2.15 4.15 3.55 8.75 1.45 4.7 1.15 9.5-.35 4.95-4.2 8.1-3.8 3.2-8.75 4.05l-2.6.2q-3.6 0-7.05-1.15-4.65-1.6-7.1-5.5Q-.2 27.4.05 23q.2-4.4 2-9.3Q3.85 8.75 7 5.05 10.1 1.3 14.7.1l1.8-.1q1.9.05 3.7.8 4.75 2.05 7.15 6.6" fill="#fff" fill-rule="evenodd" transform="translate(-.05)" id="d"/><path d="M27.35 7.4Q24.95 2.85 20.2.8 17.55-.3 14.7.1 10.1 1.3 7 5.05q-3.15 3.7-4.95 8.65-1.8 4.9-2 9.3-.25 4.4 2.3 8.35 2.45 3.9 7.1 5.5 4.65 1.55 9.65.95 4.95-.85 8.75-4.05 3.85-3.15 4.2-8.1.3-4.8-1.15-9.5-1.4-4.6-3.55-8.75Z" fill="none" stroke="#333" stroke-linecap="round" stroke-linejoin="round" transform="translate(.45 .5)" id="e"/><use height="38" width="32.05" xlink:href="#d" id="a"/><use height="38.95" width="33.05" xlink:href="#e" id="b"/><g id="c" fill-rule="evenodd"><path d="M21.3 12.1h-.9l-.55-9.15Q15.7 10.4 7.1 11.4-2.7 12.75-12 9.65l.6 3.85-1.05.05-.45-4.75q9.65 3.35 19.85 1.6 8.65-1.55 12.8-8.8l.75.15.8 10.35m.6 8.05-.95-4.5.75-.75 1.5 5.15-.35.75q-.55 1.35-1.95 1.3l-.85.85q-1.55 1.5-3.6 1.45l-.45.45q-2.2 2-4.7 1.3l-.55.4q-2.3 1.55-4.85.7l-1.85.35q-2.3.45-4.45-.85l-.4.25q-2.8.65-4.85-1.4l-1.5.3q-2.6-.3-4.35-2.5l-.6.05Q-14 23-15 21.35l2.35-5.15 1.05.5-2.25 4.2.45.6q.75.9 1.85 1.1-1.1-.2-1.85-1.1l-.45-.6 2.25-4.2 3.5 1.25q6.8 2.3 14.05 1.85L3.3 26.75q1.1.35 2.1-.35l.4-.35h2.55l1.7-.55.75-.35h2q1.45-.1 2.45-1.05l.4-.5v-.05q1.75.5 3.2-.8l.95-.9.1-.4 1.45-.35q.55-.4.55-.95m-22 5.55.7-4.6-3.3 4.75.65.1 1.95-.25 3.4 1.05-3.4-1.05-1.95.25-.65-.1L.6 21.1l-.7 4.6m-10.55-3.1.85-1.25q.7-1.05 1.05-2.4-1.2 2.4-3.75 3.3l.95.35h.9q.95 1.35 2.5 1.85l.75.15-.75-.15q-1.55-.5-2.5-1.85M-5 24.45l.8-2.75.15-1-3.35 3.9 2.4-.15q0 .6.9 1.05l2.05.45-2.05-.45q-.9-.45-.9-1.05" fill="#333e49" transform="translate(15 1.65)"/><path d="m-11.4 13.5-.6-3.85q9.3 3.1 19.1 1.75 8.6-1 12.75-8.45l.55 9.15-1.1 1-.3-3.75v1.2q-.05 1.85-.9 3.25l-2.4 1q2.1-2.45 2.25-5.8l.2-2.8-4.45 9.2-4.85 1q2.4-2.25 4.45-5l1.1-1.65Q9.7 14 4.05 16.8l-6.45-.4-5.9-3.8.6.9 1.95 2.15-5.65-2.15m29.15 3.75.1 5.9 1.95-1.3-.95.9q-1.45 1.3-3.2.8l.15-5.6 1.95-.7m2.15 4.2-.15-5.05 1.3 4.55.85-.8q0 .55-.55.95l-1.45.35m-13.4-1.7 3.2-.3 3-.6-1.7 5.5-.35-4.8-2.3 6.5H5.8l.7-6.3m9.15 3.85-.4.5q-1 .95-2.45 1.05l2.85-1.55" fill="#fff" transform="translate(15 1.65)"/><path d="m19.3 13.1-1.2.7q.85-1.4.9-3.25v-1.2l.3 3.75m-3.6 1.7-2 .6 4.45-9.2-.2 2.8q-.15 3.35-2.25 5.8m-6.85 1.6-4.8.4Q9.7 14 14.4 9.75l-1.1 1.65q-2.05 2.75-4.45 5m-11.25 0-3.35-.75-1.95-2.15-.6-.9 5.9 3.8m23.35-.75.95 4.5-.85.8-1.3-4.55.15 5.05-.1.4-1.95 1.3-.1-5.9 3.2-1.6m-8.25 3.2 3.1-.9-.15 5.6v.05l-2.85 1.55h-2l-.75.35-1.7.55 2.3-6.5.35 4.8 1.7-5.5m-6.75.95.55-.05-.7 6.3-.4.35q-1 .7-2.1.35l2.65-6.95m-17.5 2.8-.95-.35q2.55-.9 3.75-3.3-.35 1.35-1.05 2.4l-.85 1.25h-.9m4.15 2 3.35-3.9-.15 1-.8 2.75-2.4.15" fill="#abd9ff" transform="translate(15 1.65)"/><path d="M20.4 12.1h.9q1 1.05.65 2.3l-.25.5-.75.75-3.2 1.6-1.95.7-3.1.9-3 .6-3.2.3-.55.05q-7.25.45-14.05-1.85l-3.5-1.25-1.05-.5q-.7-.9-.1-2.05l.3-.6 1.05-.05 5.65 2.15 3.35.75 6.45.4 4.8-.4 4.85-1 2-.6 2.4-1 1.2-.7 1.1-1m-7.65 4.55Q.1 19.3-11.8 14.4l-.3.95 2.35.85q10.9 4.15 22.3 1.6 2-.1 3.6-.8 3-1.15 5.1-3.3l-8.5 2.95" fill="#030a36" transform="translate(15 1.65)"/><path d="m12.75 16.65-.2 1.15q-11.4 2.55-22.3-1.6l-2.35-.85.3-.95q11.9 4.9 24.55 2.25" fill="#087df2" transform="translate(15 1.65)"/><path d="m12.55 17.8.2-1.15 8.5-2.95q-2.1 2.15-5.1 3.3-1.6.7-3.6.8" fill="#085cf2" transform="translate(15 1.65)"/><path d="m18.4 1.9.55.65q1.3 1.7 3.5 2.05l.55-.55.05-.05.35-.4-.4-1 .05-.7q-.35-3.3-3.6-2.7l-.5-.25-1.05.4-.15.5q-.2 1.15.65 2.05m-1.1-3 1.65-.55.8.05q3.15.55 4.15 3.55l-.15 2.3-.45.65q-6.4 0-6-6" fill="#351e02" transform="translate(15 1.65)"/><path d="m18.95 2.55 1.55 1.3.65-1.35 1.85.1q-2.35-.5-3.35-2.7l-.2-.7.1 2-1.15.7q-.85-.9-.65-2.05l.15-.5 1.05-.4.5.25q3.25-.6 3.6 2.7l-.05.7.4 1-.35.4-.25-1.15-.5 1.1.7.1-.55.55q-2.2-.35-3.5-2.05m-.9-3.15-.15.9L19-.85l-.95.25m4.9 2.35-.3-.9q-1.4-2.2-2.8-1.15l3.1 2.05" fill="#f4c606" transform="translate(15 1.65)"/><path d="m23 4.05-.7-.1.5-1.1.25 1.15-.05.05M18.05-.6 19-.85 17.9.3l.15-.9m4.9 2.35L19.85-.3q1.4-1.05 2.8 1.15l.3.9" fill="#fff" transform="translate(15 1.65)"/><path d="m18.4 1.9 1.15-.7-.1-2 .2.7q1 2.2 3.35 2.7l-1.85-.1-.65 1.35-1.55-1.3-.55-.65" fill="#b57a06" transform="translate(15 1.65)"/></g></defs></svg>

<?xml version="1.0" encoding="UTF-8" standalone="no"?>
<svg xmlns:xlink="http://www.w3.org/1999/xlink" height="82.0px" width="84.85px" xmlns="http://www.w3.org/2000/svg">
  <g transform="matrix(1.0, 0.0, 0.0, 1.0, 37.4, 42.25)">
    <use height="38.0" transform="matrix(1.0, 0.0, 0.0, 1.0, -11.95, -17.45)" width="32.05" xlink:href="#sprite0"/>
    <use height="38.95" transform="matrix(1.0, 0.0, 0.0, 1.0, -12.45, -17.95)" width="33.05" xlink:href="#sprite1"/>
    <use height="29.35" transform="matrix(1.0, 0.0, 0.0, 1.0, -15.0, -1.65)" width="38.9" xlink:href="#shape2"/>
  </g>
  <defs>
    <g id="sprite0" transform="matrix(1.0, 0.0, 0.0, 1.0, -0.05, 0.0)">
      <use height="38.0" transform="matrix(1.0, 0.0, 0.0, 1.0, 0.05, 0.0)" width="32.05" xlink:href="#shape0"/>
    </g>
    <g id="shape0" transform="matrix(1.0, 0.0, 0.0, 1.0, -0.05, 0.0)">
      <path d="M27.35 7.4 Q29.5 11.55 30.9 16.15 32.35 20.85 32.05 25.65 31.7 30.6 27.85 33.75 24.05 36.95 19.1 37.8 L16.5 38.0 Q12.9 38.0 9.45 36.85 4.8 35.25 2.35 31.35 -0.2 27.4 0.05 23.0 0.25 18.6 2.05 13.7 3.85 8.75 7.0 5.05 10.1 1.3 14.7 0.1 L16.5 0.0 Q18.4 0.05 20.2 0.8 24.95 2.85 27.35 7.4" fill="#ffffff" fill-rule="evenodd" stroke="none"/>
    </g>
    <g id="sprite1" transform="matrix(1.0, 0.0, 0.0, 1.0, 0.45, 0.5)">
      <use height="38.95" transform="matrix(1.0, 0.0, 0.0, 1.0, -0.45, -0.5)" width="33.05" xlink:href="#shape1"/>
    </g>
    <g id="shape1" transform="matrix(1.0, 0.0, 0.0, 1.0, 0.45, 0.5)">
      <path d="M27.35 7.4 Q24.95 2.85 20.2 0.8 17.55 -0.3 14.7 0.1 10.1 1.3 7.0 5.05 3.85 8.75 2.05 13.7 0.25 18.6 0.05 23.0 -0.2 27.4 2.35 31.35 4.8 35.25 9.45 36.85 14.1 38.4 19.1 37.8 24.05 36.95 27.85 33.75 31.7 30.6 32.05 25.65 32.35 20.85 30.9 16.15 29.5 11.55 27.35 7.4 Z" fill="none" stroke="#333333" stroke-linecap="round" stroke-linejoin="round" stroke-width="1.0"/>
    </g>
    <g id="shape2" transform="matrix(1.0, 0.0, 0.0, 1.0, 15.0, 1.65)">
      <path d="M21.3 12.1 L20.4 12.1 19.85 2.95 Q15.7 10.4 7.1 11.4 -2.7 12.75 -12.0 9.65 L-11.4 13.5 -12.45 13.55 -12.9 8.8 Q-3.25 12.15 6.95 10.4 15.6 8.85 19.75 1.6 L20.5 1.75 21.3 12.1 M21.9 20.15 L20.95 15.65 21.7 14.9 23.2 20.05 22.85 20.8 Q22.3 22.15 20.9 22.1 L20.05 22.95 Q18.5 24.45 16.45 24.4 L16.0 24.85 Q13.8 26.85 11.3 26.15 L10.75 26.55 Q8.45 28.1 5.9 27.25 L4.05 27.6 Q1.75 28.05 -0.4 26.75 L-0.8 27.0 Q-3.6 27.65 -5.65 25.6 L-7.15 25.9 Q-9.75 25.6 -11.5 23.4 L-12.1 23.45 Q-14.0 23.0 -15.0 21.35 L-12.65 16.2 -11.6 16.7 -13.85 20.9 -13.4 21.5 Q-12.65 22.4 -11.55 22.6 -12.65 22.4 -13.4 21.5 L-13.85 20.9 -11.6 16.7 -8.1 17.95 Q-1.3 20.25 5.95 19.8 L3.3 26.75 Q4.4 27.1 5.4 26.4 L5.8 26.05 8.35 26.05 10.05 25.5 10.8 25.15 12.8 25.15 Q14.25 25.05 15.25 24.1 L15.65 23.6 15.65 23.55 Q17.4 24.05 18.85 22.75 L19.8 21.85 19.9 21.45 21.35 21.1 Q21.9 20.7 21.9 20.15 M-0.1 25.7 L0.6 21.1 -2.7 25.85 -2.05 25.95 -0.1 25.7 3.3 26.75 -0.1 25.7 -2.05 25.95 -2.7 25.85 0.6 21.1 -0.1 25.7 M-10.65 22.6 L-9.8 21.35 Q-9.1 20.3 -8.75 18.95 -9.95 21.35 -12.5 22.25 L-11.55 22.6 -10.65 22.6 Q-9.7 23.95 -8.15 24.45 L-7.4 24.6 -8.15 24.45 Q-9.7 23.95 -10.65 22.6 M-5.0 24.45 L-4.2 21.7 -4.05 20.7 -7.4 24.6 -5.0 24.45 Q-5.0 25.05 -4.1 25.5 L-2.05 25.95 -4.1 25.5 Q-5.0 25.05 -5.0 24.45" fill="#333e49" fill-rule="evenodd" stroke="none"/>
      <path d="M-11.4 13.5 L-12.0 9.65 Q-2.7 12.75 7.1 11.4 15.7 10.4 19.85 2.95 L20.4 12.1 19.3 13.1 19.0 9.35 19.0 10.55 Q18.95 12.4 18.1 13.8 L15.7 14.8 Q17.8 12.35 17.95 9.0 L18.15 6.2 13.7 15.4 8.85 16.4 Q11.25 14.15 13.3 11.4 L14.4 9.75 Q9.7 14.0 4.05 16.8 L-2.4 16.4 -8.3 12.6 -7.7 13.5 -5.75 15.65 -11.4 13.5 M17.75 17.25 L17.85 23.15 19.8 21.85 18.85 22.75 Q17.4 24.05 15.65 23.55 L15.8 17.95 17.75 17.25 M19.9 21.45 L19.75 16.4 21.05 20.95 21.9 20.15 Q21.9 20.7 21.35 21.1 L19.9 21.45 M6.5 19.75 L9.7 19.45 12.7 18.85 11.0 24.35 10.65 19.55 8.35 26.05 5.8 26.05 6.5 19.75 M15.65 23.6 L15.25 24.1 Q14.25 25.05 12.8 25.15 L15.65 23.6" fill="#ffffff" fill-rule="evenodd" stroke="none"/>
      <path d="M19.3 13.1 L18.1 13.8 Q18.95 12.4 19.0 10.55 L19.0 9.35 19.3 13.1 M15.7 14.8 L13.7 15.4 18.15 6.2 17.95 9.0 Q17.8 12.35 15.7 14.8 M8.85 16.4 L4.05 16.8 Q9.7 14.0 14.4 9.75 L13.3 11.4 Q11.25 14.15 8.85 16.4 M-2.4 16.4 L-5.75 15.65 -7.7 13.5 -8.3 12.6 -2.4 16.4 M20.95 15.65 L21.9 20.15 21.05 20.95 19.75 16.4 19.9 21.45 19.8 21.85 17.85 23.15 17.75 17.25 20.95 15.65 M12.7 18.85 L15.8 17.95 15.65 23.55 15.65 23.6 12.8 25.15 10.8 25.15 10.05 25.5 8.35 26.05 10.65 19.55 11.0 24.35 12.7 18.85 M5.95 19.8 L6.5 19.75 5.8 26.05 5.4 26.4 Q4.4 27.1 3.3 26.75 L5.95 19.8 M-11.55 22.6 L-12.5 22.25 Q-9.95 21.35 -8.75 18.95 -9.1 20.3 -9.8 21.35 L-10.65 22.6 -11.55 22.6 M-7.4 24.6 L-4.05 20.7 -4.2 21.7 -5.0 24.45 -7.4 24.6" fill="#abd9ff" fill-rule="evenodd" stroke="none"/>
      <path d="M20.4 12.1 L21.3 12.1 Q22.3 13.15 21.95 14.4 L21.7 14.9 20.95 15.65 17.75 17.25 15.8 17.95 12.7 18.85 9.7 19.45 6.5 19.75 5.95 19.8 Q-1.3 20.25 -8.1 17.95 L-11.6 16.7 -12.65 16.2 Q-13.35 15.3 -12.75 14.15 L-12.45 13.55 -11.4 13.5 -5.75 15.65 -2.4 16.4 4.05 16.8 8.85 16.4 13.7 15.4 15.7 14.8 18.1 13.8 19.3 13.1 20.4 12.1 M12.75 16.65 Q0.1 19.3 -11.8 14.4 L-12.1 15.35 -9.75 16.2 Q1.15 20.35 12.55 17.8 14.55 17.7 16.15 17.0 19.15 15.85 21.25 13.7 L12.75 16.65" fill="#030a36" fill-rule="evenodd" stroke="none"/>
      <path d="M12.75 16.65 L12.55 17.8 Q1.15 20.35 -9.75 16.2 L-12.1 15.35 -11.8 14.4 Q0.1 19.3 12.75 16.65" fill="#087df2" fill-rule="evenodd" stroke="none"/>
      <path d="M12.55 17.8 L12.75 16.65 21.25 13.7 Q19.15 15.85 16.15 17.0 14.55 17.7 12.55 17.8" fill="#085cf2" fill-rule="evenodd" stroke="none"/>
      <path d="M18.4 1.9 L18.95 2.55 Q20.25 4.25 22.45 4.6 L23.0 4.05 23.05 4.0 23.4 3.6 23.0 2.6 23.05 1.9 Q22.7 -1.4 19.45 -0.8 L18.95 -1.05 17.9 -0.65 17.75 -0.15 Q17.55 1.0 18.4 1.9 M17.3 -1.1 L18.95 -1.65 19.75 -1.6 Q22.9 -1.05 23.9 1.95 L23.75 4.25 23.3 4.9 Q16.9 4.9 17.3 -1.1" fill="#351e02" fill-rule="evenodd" stroke="none"/>
      <path d="M18.95 2.55 L20.5 3.85 21.15 2.5 23.0 2.6 Q20.65 2.1 19.65 -0.1 L19.45 -0.8 19.55 1.2 18.4 1.9 Q17.55 1.0 17.75 -0.15 L17.9 -0.65 18.95 -1.05 19.45 -0.8 Q22.7 -1.4 23.05 1.9 L23.0 2.6 23.4 3.6 23.05 4.0 22.8 2.85 22.3 3.95 23.0 4.05 22.45 4.6 Q20.25 4.25 18.95 2.55 M18.05 -0.6 L17.9 0.3 19.0 -0.85 18.05 -0.6 M22.95 1.75 L22.65 0.85 Q21.25 -1.35 19.85 -0.3 L22.95 1.75" fill="#f4c606" fill-rule="evenodd" stroke="none"/>
      <path d="M23.0 4.05 L22.3 3.95 22.8 2.85 23.05 4.0 23.0 4.05 M18.05 -0.6 L19.0 -0.85 17.9 0.3 18.05 -0.6 M22.95 1.75 L19.85 -0.3 Q21.25 -1.35 22.65 0.85 L22.95 1.75" fill="#ffffff" fill-rule="evenodd" stroke="none"/>
      <path d="M18.4 1.9 L19.55 1.2 19.45 -0.8 19.65 -0.1 Q20.65 2.1 23.0 2.6 L21.15 2.5 20.5 3.85 18.95 2.55 18.4 1.9" fill="#b57a06" fill-rule="evenodd" stroke="none"/>
    </g>
  </defs>
</svg>
